Papirus/64x64/apps/com.github.torikulhabib.nino.svg

<?xml version="1.0" encoding="UTF-8" standalone="no"?>
<svg
   id="_图层_1"
   version="1.1"
   viewBox="0 0 64 64" width="64" height="64"
   sodipodi:docname="com.github.torikulhabib.nino.svg"
   xml:space="preserve"
   inkscape:version="1.4 (e7c3feb100, 2024-10-09)"
   xmlns:inkscape="http://www.inkscape.org/namespaces/inkscape"
   xmlns:sodipodi="http://sodipodi.sourceforge.net/DTD/sodipodi-0.dtd"
   xmlns="http://www.w3.org/2000/svg"
   xmlns:svg="http://www.w3.org/2000/svg"><sodipodi:namedview
     id="namedview26"
     pagecolor="#505050"
     bordercolor="#eeeeee"
     borderopacity="1"
     inkscape:showpageshadow="0"
     inkscape:pageopacity="0"
     inkscape:pagecheckerboard="0"
     inkscape:deskcolor="#505050"
     inkscape:zoom="8.453125"
     inkscape:cx="31.94085"
     inkscape:cy="24.369686"
     inkscape:window-width="1920"
     inkscape:window-height="939"
     inkscape:window-x="0"
     inkscape:window-y="34"
     inkscape:window-maximized="1"
     inkscape:current-layer="_图层_1" /><!-- Generator: Adobe Illustrator 29.0.1, SVG Export Plug-In . SVG Version: 2.1.0 Build 192)  --><defs
     id="defs6"><style
       id="style1">
      .st0 {
        fill-opacity: .5;
      }

      .st0, .st1, .st2, .st3, .st4, .st5, .st6, .st7 {
        fill: #fff;
      }

      .st8 {
        fill: #133c9a;
      }

      .st2, .st9 {
        display: none;
      }

      .st3 {
        fill-opacity: .2;
      }

      .st4 {
        fill-opacity: .9;
      }

      .st10 {
        fill: #3370ff;
      }

      .st11 {
        fill: url(#_未命名的渐变_3);
      }

      .st12 {
        fill: url(#_未命名的渐变);
      }

      .st5 {
        fill-opacity: .3;
      }

      .st6 {
        fill-opacity: 0;
      }

      .st7 {
        fill-opacity: .7;
      }

      .st13 {
        fill: #00d6b9;
      }

      .st14 {
        fill: url(#_未命名的渐变_2);
      }
    </style><radialGradient
       id="_未命名的渐变"
       data-name="未命名的渐变"
       cx="123.9"
       cy="-40.2"
       fx="123.9"
       fy="-40.2"
       r="59.4"
       gradientTransform="translate(-26.8 25.5) scale(.6 -.7)"
       gradientUnits="userSpaceOnUse"><stop
         offset="0"
         stop-color="#db202e"
         id="stop1" /><stop
         offset="1"
         stop-color="#e01b24"
         id="stop2" /></radialGradient><radialGradient
       id="_未命名的渐变_2"
       data-name="未命名的渐变 2"
       cx="67.6"
       cy="26.8"
       fx="67.6"
       fy="26.8"
       r="105.2"
       gradientTransform="translate(-26.6 25.3) scale(.6 -.7)"
       gradientUnits="userSpaceOnUse"><stop
         offset="0"
         stop-color="#ffb648"
         id="stop3" /><stop
         offset="1"
         stop-color="#ff7800"
         stop-opacity="0"
         id="stop4" /></radialGradient><radialGradient
       id="_未命名的渐变_3"
       data-name="未命名的渐变 3"
       cx="61.7"
       cy="18.6"
       fx="61.7"
       fy="18.6"
       r="68"
       gradientTransform="translate(-26.8 25.8) scale(.6 -.7)"
       gradientUnits="userSpaceOnUse"><stop
         offset="0"
         stop-color="#c64600"
         id="stop5" /><stop
         offset="1"
         stop-color="#a51d2d"
         id="stop6" /></radialGradient></defs><path
     class="st1"
     d="M47.5,64.1H13.8c-7.6,0-13.8-6.3-13.8-13.8V13.7C0,6.2,6.2,0,13.7,0h36.6c7.5,0,13.7,6.2,13.7,13.7v36.6c0,7.5-6.2,13.7-13.7,13.7h-2.9.1Z"
     id="path6"
     style="fill:#f9f9f9;fill-opacity:1" /><g
     id="g43"
     transform="matrix(0.84621071,0,0,0.85212569,4.5482441,4.4011088)"><path
       style="opacity:0.2"
       d="m 3.0017541,40.593089 a 2.8647506,2.519535 0 0 0 0.3832352,1.185836 l 5.5666827,8.480438 5.566683,8.480436 a 2.8647506,2.519535 0 0 0 4.962462,0 l 5.566682,-8.480436 5.569478,-8.480438 A 2.8647506,2.519535 0 0 0 28.135749,38.000001 H 5.8662179 a 2.8647506,2.519535 0 0 0 -2.8644638,2.593088 z"
       id="path1" /><rect
       style="fill:#53990f"
       width="30"
       height="16"
       x="17"
       y="35"
       rx="2.8570001"
       ry="2.6670001"
       transform="matrix(0,1,1,0,0,0)"
       id="rect1" /><rect
       style="fill:#b63312"
       width="30"
       height="16"
       x="-45"
       y="9"
       rx="2.8570001"
       ry="2.6670001"
       transform="rotate(-90)"
       id="rect2" /><path
       style="opacity:0.2"
       d="m 29.001753,23.406911 a 2.8647506,2.519535 0 0 1 0.383235,-1.185835 l 5.566684,-8.480439 5.566682,-8.4804372 a 2.8647506,2.519535 0 0 1 4.962462,0 l 5.566682,8.4804372 5.569477,8.480439 A 2.8647506,2.519535 0 0 1 54.135747,26 h -22.26953 a 2.8647506,2.519535 0 0 1 -2.864464,-2.593089 z"
       id="path2" /><path
       style="fill:#88d216"
       d="m 29.001753,22.406913 a 2.8647506,2.519535 0 0 1 0.383235,-1.185836 l 5.566684,-8.480438 5.566682,-8.4804377 a 2.8647506,2.519535 0 0 1 4.962462,0 l 5.566682,8.4804377 5.569477,8.480438 a 2.8647506,2.519535 0 0 1 -2.481228,3.778924 h -22.26953 a 2.8647506,2.519535 0 0 1 -2.864464,-2.593088 z"
       id="path3-2" /><path
       style="fill:#e73e19"
       d="m 3.0017541,39.593091 a 2.8647506,2.519535 0 0 0 0.3832352,1.185837 l 5.5666827,8.480437 5.566683,8.480436 a 2.8647506,2.519535 0 0 0 4.962462,0 l 5.566682,-8.480436 5.569478,-8.480437 A 2.8647506,2.519535 0 0 0 28.135749,37.000003 H 5.8662179 a 2.8647506,2.519535 0 0 0 -2.8644638,2.593088 z"
       id="path4-9" /><path
       style="opacity:0.1;fill:#ffffff"
       d="m 11.669212,15 c -1.477332,0 -2.667969,1.272612 -2.667969,2.855469 v 1 C 9.001243,17.272612 10.19188,16 11.669212,16 h 10.664062 c 1.477332,0 2.667969,1.272612 2.667969,2.855469 v -1 C 25.001243,16.272612 23.810606,15 22.333274,15 Z"
       id="path5" /><path
       style="opacity:0.2;fill:#ffffff"
       d="m 42.864524,3.0039062 a 2.8647506,2.519535 0 0 0 -2.34375,1.2578126 l -5.570312,8.4804692 -5.566406,8.480468 a 2.8647506,2.519535 0 0 0 -0.382813,1.183594 2.8647506,2.519535 0 0 0 0.05859,0.572266 2.8647506,2.519535 0 0 1 0.324219,-0.75586 l 5.566406,-8.480468 5.570312,-8.4804692 a 2.8647506,2.519535 0 0 1 2.34375,-1.2578126 2.8647506,2.519535 0 0 1 2.617188,1.2578126 l 5.566406,8.4804692 5.570313,8.480468 a 2.8647506,2.519535 0 0 1 0.322265,0.757813 2.8647506,2.519535 0 0 0 -0.322265,-1.757813 L 51.048118,12.742188 45.481712,4.2617188 A 2.8647506,2.519535 0 0 0 42.864524,3.0039062 Z"
       id="path6-3" /><path
       style="opacity:0.2;fill:#ffffff"
       d="M 5.8684306,37 A 2.8647506,2.519535 0 0 0 3.0012431,39.59375 2.8647506,2.519535 0 0 0 3.06179,40.015625 2.8647506,2.519535 0 0 1 5.8684306,38 H 28.137962 A 2.8647506,2.519535 0 0 1 30.938743,40.019531 2.8647506,2.519535 0 0 0 28.137962,37 Z"
       id="path7" /><rect
       style="opacity:0.2"
       width="32"
       height="32"
       x="-63"
       y="-63"
       rx="16"
       ry="16"
       transform="matrix(0,-1,-1,0,0,0)"
       id="rect7" /><rect
       style="fill:#9c56e2"
       width="32"
       height="32"
       x="-62"
       y="-63"
       rx="16"
       ry="16"
       transform="matrix(0,-1,-1,0,0,0)"
       id="rect8" /><path
       style="fill:#ffffff"
       d="m 47,36 c -0.680215,0 -1.344249,0.0698 -1.986328,0.199219 -0.998015,0.201162 -1.940327,0.551115 -2.806641,1.02539 -4.89e-4,2.68e-4 -0.0015,-2.68e-4 -0.002,0 a 10,10 0 0 0 -0.02148,0.01367 c -0.280073,0.154323 -0.553533,0.320426 -0.816406,0.5 a 10,10 0 0 0 -0.160157,0.119141 c -0.211003,0.150395 -0.418805,0.304768 -0.617187,0.470703 a 10,10 0 0 0 -0.279297,0.253906 c -0.14342,0.12942 -0.288128,0.257105 -0.423828,0.394531 a 10,10 0 0 0 -0.314453,0.345704 c -0.116724,0.129744 -0.235809,0.256827 -0.345704,0.392578 a 10,10 0 0 0 -0.236328,0.314453 c -0.124298,0.166469 -0.247383,0.333569 -0.361328,0.507812 a 10,10 0 0 0 -0.162109,0.269532 c -0.114569,0.18781 -0.227816,0.376576 -0.330078,0.572265 a 10,10 0 0 0 -0.146485,0.304688 c -0.09633,0.200636 -0.190375,0.40159 -0.273437,0.609375 a 10,10 0 0 0 -0.103516,0.285156 c -0.07797,0.21376 -0.153286,0.428146 -0.216797,0.648437 a 10,10 0 0 0 -0.08594,0.335938 c -0.0497,0.198083 -0.09708,0.397035 -0.134766,0.599609 a 10,10 0 0 0 -0.06836,0.44336 c -0.02545,0.181869 -0.04892,0.36396 -0.06445,0.548828 A 10,10 0 0 0 37,46 c 0,0.680215 0.0698,1.344249 0.199219,1.986328 0.201162,0.998015 0.551115,1.940327 1.02539,2.806641 a 10,10 0 0 0 0.01367,0.02344 c 0.154323,0.280073 0.320426,0.553533 0.5,0.816406 a 10,10 0 0 0 0.119141,0.160157 c 0.150395,0.211003 0.304768,0.418805 0.470703,0.617187 a 10,10 0 0 0 0.253906,0.279297 c 0.12942,0.14342 0.257105,0.288128 0.394531,0.423828 a 10,10 0 0 0 0.345704,0.314453 c 0.129744,0.116724 0.256827,0.235809 0.392578,0.345704 a 10,10 0 0 0 0.314453,0.236328 c 0.166469,0.124298 0.333569,0.247383 0.507812,0.361328 a 10,10 0 0 0 0.269532,0.162109 c 0.18781,0.114569 0.376576,0.227816 0.572265,0.330078 a 10,10 0 0 0 0.304688,0.146485 c 0.200636,0.09633 0.40159,0.190375 0.609375,0.273437 a 10,10 0 0 0 0.285156,0.103516 c 0.21376,0.07797 0.428146,0.153286 0.648437,0.216797 a 10,10 0 0 0 0.335938,0.08594 c 0.198083,0.0497 0.397035,0.09708 0.599609,0.134766 a 10,10 0 0 0 0.44336,0.06836 c 0.181869,0.02545 0.36396,0.04892 0.548828,0.06445 A 10,10 0 0 0 47,56 c 0.680215,0 1.344249,-0.0698 1.986328,-0.199219 0.998015,-0.201162 1.940327,-0.551115 2.806641,-1.02539 4.89e-4,-2.68e-4 0.0015,2.68e-4 0.002,0 a 10,10 0 0 0 0.02148,-0.01367 c 0.280073,-0.154323 0.553533,-0.320426 0.816406,-0.5 a 10,10 0 0 0 0.160157,-0.119141 c 0.211003,-0.150395 0.418805,-0.304768 0.617187,-0.470703 a 10,10 0 0 0 0.279297,-0.253906 c 0.14342,-0.12942 0.288128,-0.257105 0.423828,-0.394531 a 10,10 0 0 0 0.314453,-0.345704 c 0.116724,-0.129744 0.235809,-0.256827 0.345704,-0.392578 a 10,10 0 0 0 0.236328,-0.314453 c 0.124298,-0.166469 0.247383,-0.333569 0.361328,-0.507812 a 10,10 0 0 0 0.162109,-0.269532 c 0.114569,-0.18781 0.227816,-0.376576 0.330078,-0.572265 a 10,10 0 0 0 0.146485,-0.304688 c 0.09633,-0.200636 0.190375,-0.40159 0.273437,-0.609375 a 10,10 0 0 0 0.103516,-0.285156 c 0.07797,-0.21376 0.153286,-0.428146 0.216797,-0.648437 a 10,10 0 0 0 0.08594,-0.335938 c 0.0497,-0.198083 0.09708,-0.397035 0.134766,-0.599609 a 10,10 0 0 0 0.06836,-0.44336 c 0.02545,-0.181869 0.04892,-0.36396 0.06445,-0.548828 A 10,10 0 0 0 57,46 c 0,-0.680215 -0.0698,-1.344249 -0.199219,-1.986328 -0.201162,-0.998015 -0.551115,-1.940327 -1.02539,-2.806641 -2.68e-4,-4.89e-4 2.68e-4,-0.0015 0,-0.002 a 10,10 0 0 0 -0.01367,-0.02148 c -0.154323,-0.280073 -0.320426,-0.553533 -0.5,-0.816406 A 10,10 0 0 0 55.142578,40.207031 C 54.992183,39.996028 54.83781,39.788226 54.671875,39.589844 a 10,10 0 0 0 -0.253906,-0.279297 c -0.12942,-0.14342 -0.257105,-0.288128 -0.394531,-0.423828 A 10,10 0 0 0 53.677734,38.572266 C 53.54799,38.455542 53.420907,38.336457 53.285156,38.226562 a 10,10 0 0 0 -0.314453,-0.236328 c -0.166469,-0.124298 -0.333569,-0.247383 -0.507812,-0.361328 a 10,10 0 0 0 -0.269532,-0.162109 c -0.18781,-0.114569 -0.376576,-0.227816 -0.572265,-0.330078 a 10,10 0 0 0 -0.304688,-0.146485 c -0.200636,-0.09633 -0.40159,-0.190375 -0.609375,-0.273437 a 10,10 0 0 0 -0.285156,-0.103516 c -0.21376,-0.07797 -0.428146,-0.153286 -0.648437,-0.216797 A 10,10 0 0 0 49.4375,36.310547 c -0.198083,-0.0497 -0.397035,-0.09708 -0.599609,-0.134766 a 10,10 0 0 0 -0.44336,-0.06836 c -0.181869,-0.02545 -0.36396,-0.04892 -0.548828,-0.06445 A 10,10 0 0 0 47,36 Z m -0.654297,2.03125 c -0.03434,0.09645 -0.09373,0.22759 -0.183594,0.423828 -0.846704,1.849704 -0.893237,4.017929 -0.107421,5.175781 0.1422,0.209926 0.269531,0.409575 0.269531,0.435547 0,0.02594 -0.152778,0.05273 -0.326172,0.05273 -0.407056,0 -0.791067,-0.247852 -1.578125,-0.871094 -0.34964,-0.276864 -0.804369,-0.507769 -0.980469,-0.542969 -0.276532,-0.05524 -0.351242,-0.0316 -0.708984,0.326172 -0.332844,0.332786 -0.435547,0.513699 -0.435547,0.818359 0,1.155308 1.372439,2.070917 3.921875,2.611329 3.462228,0.7338 4.314658,1.392324 4.410156,3.21289 0.08635,1.644179 -0.532339,2.99472 -1.873047,4.121094 A 8,8 0 0 1 47,54 8,8 0 0 1 45.919922,53.917969 c -0.15772,-0.927355 -0.561945,-1.797887 -1.119141,-2.337891 -0.19332,-0.18738 -0.735697,-0.584156 -1.199219,-0.871094 -0.463507,-0.286916 -0.93094,-0.619518 -1.035156,-0.761718 -0.1727,-0.23598 -0.185414,-0.380469 -0.05273,-0.816407 0.241818,-0.79619 0.528343,-1.241072 1.08789,-1.74414 0.293349,-0.263738 0.587356,-0.482996 0.652344,-0.488281 0.065,-0.0054 -0.371462,-0.138462 -1.03125,-0.273438 -0.659752,-0.13522 -1.627965,-0.419013 -2.126953,-0.599609 -0.646127,-0.233793 -1.439776,-0.650286 -2.021484,-1.050782 a 8,8 0 0 1 7.271484,-6.943359 z m 7.623047,4.058594 A 8,8 0 0 1 55,46 8,8 0 0 1 54.558594,48.595703 c -0.248413,-0.35837 -0.687188,-0.883201 -1.09961,-1.318359 -1.401376,-1.478736 -1.62217,-2.247577 -1.035156,-3.427735 0.241083,-0.484652 1.133588,-1.462178 1.544922,-1.759765 z"
       id="path8" /></g></svg>

<svg xmlns="http://www.w3.org/2000/svg" width="64" height="64" version="1">
 <path style="opacity:0.2" d="m 3.0017541,40.593089 a 2.8647506,2.519535 0 0 0 0.3832352,1.185836 l 5.5666827,8.480438 5.566683,8.480436 a 2.8647506,2.519535 0 0 0 4.962462,0 l 5.566682,-8.480436 5.569478,-8.480438 A 2.8647506,2.519535 0 0 0 28.135749,38.000001 H 5.8662179 a 2.8647506,2.519535 0 0 0 -2.8644638,2.593088 z"/>
 <rect style="fill:#53990f" width="30" height="16" x="17" y="35" rx="2.857" ry="2.667" transform="matrix(0,1,1,0,0,0)"/>
 <rect style="fill:#b63312" width="30" height="16" x="-45" y="9" rx="2.857" ry="2.667" transform="rotate(-90)"/>
 <path style="opacity:0.2" d="m 29.001753,23.406911 a 2.8647506,2.519535 0 0 1 0.383235,-1.185835 l 5.566684,-8.480439 5.566682,-8.4804372 a 2.8647506,2.519535 0 0 1 4.962462,0 l 5.566682,8.4804372 5.569477,8.480439 A 2.8647506,2.519535 0 0 1 54.135747,26 h -22.26953 a 2.8647506,2.519535 0 0 1 -2.864464,-2.593089 z"/>
 <path style="fill:#88d216" d="m 29.001753,22.406913 a 2.8647506,2.519535 0 0 1 0.383235,-1.185836 l 5.566684,-8.480438 5.566682,-8.4804377 a 2.8647506,2.519535 0 0 1 4.962462,0 l 5.566682,8.4804377 5.569477,8.480438 a 2.8647506,2.519535 0 0 1 -2.481228,3.778924 h -22.26953 a 2.8647506,2.519535 0 0 1 -2.864464,-2.593088 z"/>
 <path style="fill:#e73e19" d="m 3.0017541,39.593091 a 2.8647506,2.519535 0 0 0 0.3832352,1.185837 l 5.5666827,8.480437 5.566683,8.480436 a 2.8647506,2.519535 0 0 0 4.962462,0 l 5.566682,-8.480436 5.569478,-8.480437 A 2.8647506,2.519535 0 0 0 28.135749,37.000003 H 5.8662179 a 2.8647506,2.519535 0 0 0 -2.8644638,2.593088 z"/>
 <path style="opacity:0.1;fill:#ffffff" d="m 11.669212,15 c -1.477332,0 -2.667969,1.272612 -2.667969,2.855469 v 1 C 9.001243,17.272612 10.19188,16 11.669212,16 h 10.664062 c 1.477332,0 2.667969,1.272612 2.667969,2.855469 v -1 C 25.001243,16.272612 23.810606,15 22.333274,15 Z"/>
 <path style="opacity:0.2;fill:#ffffff" d="m 42.864524,3.0039062 a 2.8647506,2.519535 0 0 0 -2.34375,1.2578126 l -5.570312,8.4804692 -5.566406,8.480468 a 2.8647506,2.519535 0 0 0 -0.382813,1.183594 2.8647506,2.519535 0 0 0 0.05859,0.572266 2.8647506,2.519535 0 0 1 0.324219,-0.75586 l 5.566406,-8.480468 5.570312,-8.4804692 a 2.8647506,2.519535 0 0 1 2.34375,-1.2578126 2.8647506,2.519535 0 0 1 2.617188,1.2578126 l 5.566406,8.4804692 5.570313,8.480468 a 2.8647506,2.519535 0 0 1 0.322265,0.757813 2.8647506,2.519535 0 0 0 -0.322265,-1.757813 L 51.048118,12.742188 45.481712,4.2617188 A 2.8647506,2.519535 0 0 0 42.864524,3.0039062 Z"/>
 <path style="opacity:0.2;fill:#ffffff" d="M 5.8684306,37 A 2.8647506,2.519535 0 0 0 3.0012431,39.59375 2.8647506,2.519535 0 0 0 3.06179,40.015625 2.8647506,2.519535 0 0 1 5.8684306,38 H 28.137962 A 2.8647506,2.519535 0 0 1 30.938743,40.019531 2.8647506,2.519535 0 0 0 28.137962,37 Z"/>
 <rect style="opacity:0.2" width="32" height="32" x="-63" y="-63" rx="16" ry="16" transform="matrix(0,-1,-1,0,0,0)"/>
 <rect style="fill:#9c56e2" width="32" height="32" x="-62" y="-63" rx="16" ry="16" transform="matrix(0,-1,-1,0,0,0)"/>
 <path style="fill:#ffffff" d="M 47 36 C 46.319785 36 45.655751 36.0698 45.013672 36.199219 C 44.015657 36.400381 43.073345 36.750334 42.207031 37.224609 C 42.206542 37.224877 42.205567 37.224341 42.205078 37.224609 A 10 10 0 0 0 42.183594 37.238281 C 41.903521 37.392604 41.630061 37.558707 41.367188 37.738281 A 10 10 0 0 0 41.207031 37.857422 C 40.996028 38.007817 40.788226 38.16219 40.589844 38.328125 A 10 10 0 0 0 40.310547 38.582031 C 40.167127 38.711451 40.022419 38.839136 39.886719 38.976562 A 10 10 0 0 0 39.572266 39.322266 C 39.455542 39.45201 39.336457 39.579093 39.226562 39.714844 A 10 10 0 0 0 38.990234 40.029297 C 38.865936 40.195766 38.742851 40.362866 38.628906 40.537109 A 10 10 0 0 0 38.466797 40.806641 C 38.352228 40.994451 38.238981 41.183217 38.136719 41.378906 A 10 10 0 0 0 37.990234 41.683594 C 37.893905 41.88423 37.799859 42.085184 37.716797 42.292969 A 10 10 0 0 0 37.613281 42.578125 C 37.535315 42.791885 37.459995 43.006271 37.396484 43.226562 A 10 10 0 0 0 37.310547 43.5625 C 37.260851 43.760583 37.213462 43.959535 37.175781 44.162109 A 10 10 0 0 0 37.107422 44.605469 C 37.081968 44.787338 37.058502 44.969429 37.042969 45.154297 A 10 10 0 0 0 37 46 C 37 46.680215 37.0698 47.344249 37.199219 47.986328 C 37.400381 48.984343 37.750334 49.926655 38.224609 50.792969 A 10 10 0 0 0 38.238281 50.816406 C 38.392604 51.096479 38.558707 51.369939 38.738281 51.632812 A 10 10 0 0 0 38.857422 51.792969 C 39.007817 52.003972 39.16219 52.211774 39.328125 52.410156 A 10 10 0 0 0 39.582031 52.689453 C 39.711451 52.832873 39.839136 52.977581 39.976562 53.113281 A 10 10 0 0 0 40.322266 53.427734 C 40.45201 53.544458 40.579093 53.663543 40.714844 53.773438 A 10 10 0 0 0 41.029297 54.009766 C 41.195766 54.134064 41.362866 54.257149 41.537109 54.371094 A 10 10 0 0 0 41.806641 54.533203 C 41.994451 54.647772 42.183217 54.761019 42.378906 54.863281 A 10 10 0 0 0 42.683594 55.009766 C 42.88423 55.106095 43.085184 55.200141 43.292969 55.283203 A 10 10 0 0 0 43.578125 55.386719 C 43.791885 55.464685 44.006271 55.540005 44.226562 55.603516 A 10 10 0 0 0 44.5625 55.689453 C 44.760583 55.739149 44.959535 55.786538 45.162109 55.824219 A 10 10 0 0 0 45.605469 55.892578 C 45.787338 55.918032 45.969429 55.941498 46.154297 55.957031 A 10 10 0 0 0 47 56 C 47.680215 56 48.344249 55.9302 48.986328 55.800781 C 49.984343 55.599619 50.926655 55.249666 51.792969 54.775391 C 51.793458 54.775123 51.794433 54.775659 51.794922 54.775391 A 10 10 0 0 0 51.816406 54.761719 C 52.096479 54.607396 52.369939 54.441293 52.632812 54.261719 A 10 10 0 0 0 52.792969 54.142578 C 53.003972 53.992183 53.211774 53.83781 53.410156 53.671875 A 10 10 0 0 0 53.689453 53.417969 C 53.832873 53.288549 53.977581 53.160864 54.113281 53.023438 A 10 10 0 0 0 54.427734 52.677734 C 54.544458 52.54799 54.663543 52.420907 54.773438 52.285156 A 10 10 0 0 0 55.009766 51.970703 C 55.134064 51.804234 55.257149 51.637134 55.371094 51.462891 A 10 10 0 0 0 55.533203 51.193359 C 55.647772 51.005549 55.761019 50.816783 55.863281 50.621094 A 10 10 0 0 0 56.009766 50.316406 C 56.106095 50.11577 56.200141 49.914816 56.283203 49.707031 A 10 10 0 0 0 56.386719 49.421875 C 56.464685 49.208115 56.540005 48.993729 56.603516 48.773438 A 10 10 0 0 0 56.689453 48.4375 C 56.739149 48.239417 56.786538 48.040465 56.824219 47.837891 A 10 10 0 0 0 56.892578 47.394531 C 56.918032 47.212662 56.941498 47.030571 56.957031 46.845703 A 10 10 0 0 0 57 46 C 57 45.319785 56.9302 44.655751 56.800781 44.013672 C 56.599619 43.015657 56.249666 42.073345 55.775391 41.207031 C 55.775123 41.206542 55.775659 41.205567 55.775391 41.205078 A 10 10 0 0 0 55.761719 41.183594 C 55.607396 40.903521 55.441293 40.630061 55.261719 40.367188 A 10 10 0 0 0 55.142578 40.207031 C 54.992183 39.996028 54.83781 39.788226 54.671875 39.589844 A 10 10 0 0 0 54.417969 39.310547 C 54.288549 39.167127 54.160864 39.022419 54.023438 38.886719 A 10 10 0 0 0 53.677734 38.572266 C 53.54799 38.455542 53.420907 38.336457 53.285156 38.226562 A 10 10 0 0 0 52.970703 37.990234 C 52.804234 37.865936 52.637134 37.742851 52.462891 37.628906 A 10 10 0 0 0 52.193359 37.466797 C 52.005549 37.352228 51.816783 37.238981 51.621094 37.136719 A 10 10 0 0 0 51.316406 36.990234 C 51.11577 36.893905 50.914816 36.799859 50.707031 36.716797 A 10 10 0 0 0 50.421875 36.613281 C 50.208115 36.535315 49.993729 36.459995 49.773438 36.396484 A 10 10 0 0 0 49.4375 36.310547 C 49.239417 36.260851 49.040465 36.213462 48.837891 36.175781 A 10 10 0 0 0 48.394531 36.107422 C 48.212662 36.081968 48.030571 36.058502 47.845703 36.042969 A 10 10 0 0 0 47 36 z M 46.345703 38.03125 C 46.311362 38.127702 46.25197 38.25884 46.162109 38.455078 C 45.315405 40.304782 45.268872 42.473007 46.054688 43.630859 C 46.196888 43.840785 46.324219 44.040434 46.324219 44.066406 C 46.324219 44.092346 46.171441 44.119141 45.998047 44.119141 C 45.590991 44.119141 45.20698 43.871289 44.419922 43.248047 C 44.070282 42.971183 43.615553 42.740278 43.439453 42.705078 C 43.162921 42.649838 43.088211 42.673478 42.730469 43.03125 C 42.397625 43.364036 42.294922 43.544949 42.294922 43.849609 C 42.294922 45.004917 43.667361 45.920526 46.216797 46.460938 C 49.679025 47.194738 50.531455 47.853262 50.626953 49.673828 C 50.713305 51.318007 50.094614 52.668548 48.753906 53.794922 A 8 8 0 0 1 47 54 A 8 8 0 0 1 45.919922 53.917969 C 45.762202 52.990614 45.357977 52.120082 44.800781 51.580078 C 44.607461 51.392698 44.065084 50.995922 43.601562 50.708984 C 43.138055 50.422068 42.670622 50.089466 42.566406 49.947266 C 42.393706 49.711286 42.380992 49.566797 42.513672 49.130859 C 42.75549 48.334669 43.042015 47.889787 43.601562 47.386719 C 43.894911 47.122981 44.188918 46.903723 44.253906 46.898438 C 44.318906 46.893037 43.882444 46.759976 43.222656 46.625 C 42.562904 46.48978 41.594691 46.205987 41.095703 46.025391 C 40.449576 45.791598 39.655927 45.375105 39.074219 44.974609 A 8 8 0 0 1 46.345703 38.03125 z M 53.96875 42.089844 A 8 8 0 0 1 55 46 A 8 8 0 0 1 54.558594 48.595703 C 54.310181 48.237333 53.871406 47.712502 53.458984 47.277344 C 52.057608 45.798608 51.836814 45.029767 52.423828 43.849609 C 52.664911 43.364957 53.557416 42.387431 53.96875 42.089844 z"/>
</svg>
